X:1
T:A Catch by Way of Epistle
T:A Catch by Way of Epistle
T:Mr. H. Purcell
C:Mr. H. Purcell
%%score [ 1 2 3 ]
L:1/8
Q:1/4=70
M:3/4
K:Ab
V:1 treble nm="1"
V:2 treble nm="2"
V:3 treble nm="3"
V:1
 B, F | B2 B2 c2 | d2 d2 D2 | A2 A2 F2 | _G2 G2 (GF) | E3 F (_GE) | F2 F2 (FE) | D3 C B,2 | %8
w: To all|Lo- vers of|Mu- sick, Per-|for- mers and|Scra- pers, to _|those that love _|Cat- ches, play _|tunes and cut|
 F2 F2 F G | A2 A3 B | G2 G3/2 G/ c c | c2 F2 B2 | =A2 A2 f f | f B3 e2 | e2 (dc) B=A | (Bc) c3 B | %16
w: Ca- pers. With a|New Catch I|greet you and tho I|say it that|shou'- dn't. Like a|Fid- dle, 'tis|mu- sick _ tho the|words _ are but|
 B2 B2 |] %17
w: wood- 'n:|
V:2
 B c | d2 d2 A2 | F2 D2 d2 | c2 A2 d2 | B2 B2 (BA) | _G2 E2 (e2 | c3) d c2 | F3 F (GA/B/) | %8
w: But my|Bro- ther John|Play- ford and|I shall pre-|sent you, e'er _|long with a|Book, I pre-|sume will con- * *|
 =A2 A2 c2 | f3 _g f2 | B4 e2 | e3 f (ed) | c2 c2 d d | d2 (ed) (cB) | =A2 F2 (dc) | %15
w: tent you. Tis|true we know|well the|Sale of good _|mu- sick, But to|hear us _ per- *|form would make _|
 B2 (Bc) (B=A) | B2 B2 |] %17
w: him sick _ or _|you Sick.|
V:3
 z f | (_gf) (ed) (ec) | f4 _g f | e2 (dc) (BA) | e4 (ed) | c2 (cd) (cB) | =A2 F2 A2 | B3 c (dB) | %8
w: My|mag- * got _ Man _|Sam, at the|first Tem- * ple _|Gate, will _|fur- ther _ in- *|form you, if|not my wife _|
 c4 F F | =D3 C D2 | E2 E2 C2 | D4 E2 |"_Transponert ned 1/1 trinn" F4 D2 | E4 E2 | F4 F2 | %15
w: Kate, From be-|tween the two|de- vils near|Tem- ple|Bar I|rest your|Friend and|
 (_G2 F3/2) F/ F2 | B,4 |] %17
w: ser- * vant John|Carr.|

